images/sh-icn-1.svg

<svg width="50" height="50" viewBox="0 0 50 50" fill="none" xmlns="http://www.w3.org/2000/svg">
<g clip-path="url(#clip0_1_1800)">
<path d="M46.1833 32.0021L37.9459 29.2562V26.7375C37.4292 27.0167 36.8896 27.2479 36.3333 27.4333V29.725C35.8771 31.5083 34.0604 32.5833 32.2771 32.1271C31.0979 31.825 30.1771 30.9042 29.875 29.725V27.4667C29.6521 27.3917 29.4229 27.3396 29.2042 27.2479C28.8813 27.0958 28.5667 26.9271 28.2625 26.7417V29.2417L20.0229 31.9979C19.6271 32.1333 19.2479 32.3125 18.8896 32.5292C18.7583 32.6083 18.65 32.7167 18.5271 32.8062C18.3146 32.9479 18.1125 33.1042 17.9229 33.2729C17.775 33.4292 17.6354 33.5917 17.5063 33.7646C17.3792 33.9042 17.2583 34.05 17.1458 34.2021C16.9688 34.4792 16.8146 34.7708 16.6875 35.075C16.6646 35.1292 16.6292 35.1729 16.6083 35.2271C16.8438 35.6708 17.0458 36.1292 17.2125 36.6021H17.2104C17.0438 36.1292 16.8438 35.6708 16.6083 35.2271C15.2708 32.4729 12.5 30.7021 9.4396 30.6437H9.23126C4.15001 30.6042 1.26064e-05 34.6896 -0.0395707 39.7687C-0.0791541 44.8479 4.00626 49 9.08543 49.0396H9.23126C11.9438 49.0396 14.5042 47.7854 16.1688 45.6437V49.1646C16.1688 49.625 16.5417 49.9979 17.0021 49.9979H49.2084C49.6688 49.9979 50.0417 49.625 50.0417 49.1646V37.3562C50.0417 34.9271 48.4875 32.7708 46.1833 32.0021ZM16.5208 42.8937H16.5C16.3854 42.8917 16.2729 42.9146 16.1667 42.9562C16.0146 43.0396 15.8854 43.1625 15.7938 43.3104C14.5792 45.8333 12.0313 47.4437 9.23126 47.4562H9.10626C5.14793 47.375 1.91043 44.2812 1.64793 40.3312C1.49376 38.1958 2.25835 36.0958 3.7521 34.5604C5.19168 33.0792 7.16668 32.2396 9.23126 32.2271H9.41668C10.8854 32.25 12.3042 32.7708 13.4375 33.7062C14.6188 34.7458 15.4729 36.1062 15.8958 37.6229C15.9479 37.7833 16.0417 37.9271 16.1667 38.0396C16.3104 38.1312 16.475 38.1812 16.6458 38.1854H17.7917L31.8125 38.1646L34.2917 40.7687L31.875 43.0812C31.8042 43.1354 31.7146 43.1667 31.625 43.1646H31.5208C31.5208 43.1437 31.4792 43.1229 31.3958 43.0187L30.375 41.9562C30.0667 41.6479 29.5688 41.6375 29.25 41.9354L28.6875 42.4771L27.4167 41.1437C27.275 40.9979 27.0792 40.9146 26.875 40.9146H26.8542C26.6542 40.9167 26.4625 40.9917 26.3125 41.1229L24.9792 42.3937L24.0833 41.4562C23.9375 41.2979 23.7354 41.2083 23.5208 41.2062H23.5C23.3 41.2083 23.1083 41.2833 22.9583 41.4146L22 42.3312L21.1042 41.3729C20.9625 41.2271 20.7667 41.1437 20.5625 41.1437H20.5417C20.3333 41.1354 20.1313 41.2104 19.9792 41.3521L18.3125 42.9562L17.7917 42.9354L16.5208 42.8937ZM48.425 48.3937H43.5833V42.1083C43.6063 41.6667 43.2646 41.2896 42.8229 41.2667C42.3813 41.2437 42.0042 41.5854 41.9813 42.0271C41.9792 42.0542 41.9792 42.0812 41.9813 42.1083V48.3854H17.7938V44.5187L18.6063 44.5396H18.6271C18.8271 44.5375 19.0188 44.4625 19.1688 44.3312L20.5021 43.0604L21.4188 43.9979C21.7188 44.3062 22.2104 44.3146 22.5229 44.0187L23.4813 43.1229L24.3771 44.0604C24.6792 44.3771 25.1792 44.3875 25.4958 44.0875C25.4979 44.0854 25.5 44.0833 25.5021 44.0812L26.8354 42.8312L28.0854 44.1437C28.3875 44.4583 28.8854 44.475 29.2104 44.1854L29.7729 43.6437L30.2313 44.1229C30.5583 44.5229 31.0479 44.7521 31.5646 44.7479H31.6271C32.1 44.7437 32.5583 44.575 32.9188 44.2687L35.9604 41.3521C36.1208 41.2167 36.2125 41.0187 36.2104 40.8104C36.2104 40.5937 36.1292 40.3854 35.9813 40.2271L32.7313 36.8104C32.575 36.6604 32.3646 36.5771 32.1479 36.5812L17.8583 36.6021C17.9208 36.3083 18.0167 36.0229 18.1417 35.75C18.1917 35.6396 18.2458 35.5417 18.3042 35.4271C18.4125 35.2292 18.5375 35.0417 18.6771 34.8646C18.7396 34.7875 18.8 34.7062 18.8688 34.6333C19.0479 34.4417 19.2458 34.2687 19.4583 34.1146C19.5125 34.075 19.5604 34.0271 19.6188 33.9917C19.9063 33.8021 20.2188 33.65 20.5458 33.5396L26.4459 31.5646L28.5688 30.8562C29.6271 33.3646 32.5188 34.5396 35.0271 33.4812C36.2104 32.9812 37.1542 32.0396 37.6521 30.8562L45.6667 33.5396C47.3125 34.0875 48.425 35.6292 48.425 37.3646V48.3937Z" fill="#EE421D"/>
<path d="M29.2104 16.3521H30.7729C30.775 15.0667 29.7333 14.0208 28.4479 14.0187H28.4396C27.1604 14.0437 26.1313 15.0729 26.1063 16.3521H27.6479C27.6438 16.1729 27.7104 16 27.8354 15.8729V15.8521C27.9875 15.6771 28.2083 15.5771 28.4396 15.5812C28.8646 15.5792 29.2083 15.9229 29.2104 16.3479V16.3521Z" fill="#EE421D"/>
<path d="M37.85 13.9458C36.5604 13.9083 35.4813 14.9229 35.4438 16.2125C35.4417 16.2583 35.4417 16.3062 35.4438 16.3521H37.0021C37 15.9229 37.3479 15.575 37.7771 15.5729H37.7792C38.2083 15.5708 38.5563 15.9187 38.5583 16.3479V16.3521H40.1167C40.1542 15.0625 39.1396 13.9854 37.85 13.9458Z" fill="#EE421D"/>
<path d="M2.85417 19.4771C2.89583 19.4979 2.9375 19.4979 2.95833 19.5187C3.05208 19.6021 3.16875 19.6604 3.29167 19.6854C3.35208 19.7021 3.41667 19.7104 3.47917 19.7062C3.60208 19.6937 3.72292 19.6583 3.83333 19.6021C3.875 19.5812 3.91667 19.5812 3.95833 19.5604V28.3521C3.97083 28.8 4.34375 29.1542 4.79167 29.1437H23.125C23.5646 29.1521 23.9271 28.8042 23.9375 28.3646C23.9375 28.3604 23.9375 28.3562 23.9375 28.3521V22.1229C24.8417 24.0917 26.3625 25.7125 28.2667 26.7417C28.5708 26.9271 28.8854 27.0958 29.2083 27.2479C29.4271 27.3396 29.6563 27.3917 29.8792 27.4667C31.6688 28.075 33.5938 28.1729 35.4375 27.7479C35.7438 27.675 36.0312 27.5396 36.3313 27.4333C36.8875 27.2479 37.4271 27.0167 37.9438 26.7375C38.4229 26.4937 38.8792 26.2125 39.3125 25.8937C41.3604 24.3 42.7167 21.9792 43.1042 19.4146C45.2125 19.0604 46.6375 17.0667 46.2917 14.9562C46.1854 14.3437 45.9354 13.7667 45.5625 13.2687V12.4562C45.5604 5.57499 39.9813 -7.55442e-06 33.1 0.00207578C27.1375 0.00415911 22.0125 4.22916 20.875 10.0812L14.4396 4.91458C14.1604 4.66458 13.7396 4.66458 13.4604 4.91458L8.50208 8.87291V7.14374C8.50833 6.70208 8.15625 6.33749 7.71458 6.33124C7.70625 6.33124 7.69792 6.33124 7.68958 6.33124H3.87708C3.42917 6.33124 3.06458 6.69583 3.06458 7.14374V13.2687L0.335417 15.4562C0.166667 15.5979 0.060417 15.8 0.041667 16.0187C0.0312503 16.2333 0.10625 16.4437 0.25 16.6021L2.85417 19.4771ZM15.8979 27.5396H12.0021V20.6021H15.8979V27.5396ZM41.6688 17.9146C41.6625 22.65 37.8188 26.4812 33.0833 26.475C29.0396 26.4687 25.5521 23.6396 24.7104 19.6854C24.6021 19.1021 24.5458 18.5083 24.5438 17.9146V13.2271H26.1063C26.1979 13.2333 26.2917 13.2187 26.3771 13.1854L31.5438 11.2479V14.0187C31.5604 14.4458 31.9083 14.7854 32.3354 14.7896C32.4813 14.7875 32.6229 14.7521 32.7521 14.6854L38.3354 11.1854L39.4604 12.8937C39.6146 13.1062 39.8646 13.2312 40.1271 13.2271H41.6688V17.9146ZM44.6604 16.3417C44.5438 16.675 44.3542 16.9771 44.1042 17.2271C43.8563 17.4687 43.5563 17.6542 43.2292 17.7687V13.3729C44.4438 13.7979 45.0854 15.1271 44.6604 16.3417ZM22.3146 11.2271C22.9333 5.55207 27.8417 1.32708 33.5438 1.56041C39.2125 1.78541 43.7563 6.32916 43.9813 11.9979C43.5 11.7917 42.9833 11.6854 42.4604 11.6854H40.5438L39.2104 9.68541C38.9667 9.34791 38.5083 9.24999 38.1479 9.45624L33.1063 12.6229V10.1229C33.1042 9.86666 32.9813 9.62707 32.7729 9.47707C32.5646 9.33749 32.3 9.30624 32.0646 9.39374L25.9604 11.6854H23.7729C23.5063 11.6812 23.2417 11.7083 22.9813 11.7687C22.7229 11.8104 22.4688 11.8875 22.2313 11.9979C22.2271 11.7396 22.2542 11.4792 22.3146 11.2271ZM22.1063 13.9354C22.2667 13.7792 22.45 13.6458 22.6479 13.5396C22.7521 13.4708 22.8646 13.4167 22.9813 13.3729V16.7271V17.7687C22.6563 17.65 22.3583 17.4646 22.1063 17.2271C21.6458 16.7646 21.3958 16.1312 21.4188 15.4771C21.4375 14.8937 21.6833 14.3396 22.1063 13.9354ZM22.3563 19.2062V27.5396H17.5021V19.8312C17.4958 19.3812 17.1396 19.0146 16.6896 18.9979H11.2104C10.7646 19.0229 10.4104 19.3854 10.3979 19.8312V27.5396H5.54375V18.2479L13.9396 11.5187L19.9604 16.3312C20.2104 17.6375 21.1167 18.7229 22.3563 19.2062ZM4.66875 7.93541H6.89792V10.175L4.66875 11.9708V7.93541ZM3.39792 15.0396L5.18958 13.6021H5.17917L6.90417 12.2104L8.50208 10.9437L13.9396 6.56874L20.6667 11.9562C20.65 12.1229 20.6417 12.2896 20.6458 12.4562V13.2687C20.3854 13.6021 20.1938 13.9854 20.0833 14.3937L14.4396 9.87291C14.2958 9.76249 14.1208 9.70416 13.9396 9.70624C13.7667 9.70832 13.5979 9.76666 13.4604 9.87291L8.50417 13.85L6.82083 15.2062H6.81458L3.54375 17.8312L2.00208 16.1437L3.39792 15.0396Z" fill="#EE421D"/>
<path d="M33.1084 21.8021C31.6063 21.8021 30.7709 21.2188 30.7709 21.025H29.2084C29.2084 22.3563 30.875 23.3604 33.1021 23.3604C35.3292 23.3604 37.0021 22.3563 37.0021 21.025H35.4438C35.4438 21.2188 34.6105 21.8021 33.1084 21.8021Z" fill="#EE421D"/>
<path d="M7.3146 36.5813C6.94793 36.4417 6.56043 36.3646 6.16877 36.3521H6.08335C4.2271 36.35 2.71043 37.8292 2.66668 39.6854C2.63752 40.5958 2.98335 41.4771 3.62502 42.1229C4.24168 42.7813 5.09793 43.1646 6.00002 43.1854H6.08335C6.30002 43.1854 6.51668 43.1646 6.72918 43.1229C7.37085 43.0042 7.9646 42.7 8.43752 42.2479C9.80627 40.9479 9.86252 38.7833 8.56252 37.4146C8.21043 37.0521 7.78335 36.7667 7.3146 36.5813ZM7.35627 41.0604C7.34793 41.0667 7.34168 41.075 7.33335 41.0813C7.15835 41.2479 6.9521 41.3833 6.72918 41.4771C6.70835 41.4771 6.64585 41.4979 6.60418 41.4979C6.56877 41.4958 6.53335 41.5042 6.50002 41.5188L6.41668 41.5396C6.30002 41.5687 6.18127 41.5896 6.06252 41.6021H6.04168C5.56043 41.5875 5.10418 41.3854 4.77085 41.0396C4.4271 40.6917 4.23752 40.2167 4.25002 39.7271C4.2646 39.2396 4.4646 38.7771 4.81252 38.4354C5.16043 38.1188 5.61252 37.9396 6.08335 37.9354H6.12502C6.61252 37.9458 7.0771 38.1479 7.41668 38.4979C8.10835 39.2229 8.08127 40.3708 7.35627 41.0604Z" fill="#EE421D"/>
</g>
<defs>
<clipPath id="clip0_1_1800">
<rect width="50" height="50" fill="white"/>
</clipPath>
</defs>
</svg>

<svg xmlns="http://www.w3.org/2000/svg" width="50" height="50" fill="none"><g fill="#EE421D" clip-path="url(#a)"><path d="m46.183 32.002-8.237-2.746v-2.518q-.776.418-1.613.695v2.292a3.334 3.334 0 0 1-6.458 0v-2.258c-.223-.075-.452-.127-.67-.22a10 10 0 0 1-.942-.505v2.5l-8.24 2.756a6 6 0 0 0-1.133.531c-.132.08-.24.188-.363.277a5.5 5.5 0 0 0-.604.467 6 6 0 0 0-.417.492q-.191.21-.36.437a5.7 5.7 0 0 0-.459.873c-.022.054-.058.098-.079.152q.354.666.604 1.375h-.002a10 10 0 0 0-.602-1.375 8.14 8.14 0 0 0-7.168-4.583H9.23C4.15 30.604 0 34.69-.039 39.769c-.04 5.079 4.045 9.231 9.124 9.27h.146a8.79 8.79 0 0 0 6.938-3.395v3.52c0 .461.373.834.833.834h32.206c.46 0 .834-.373.834-.833V37.356a5.64 5.64 0 0 0-3.859-5.354M16.521 42.894H16.5a.9.9 0 0 0-.333.062 1 1 0 0 0-.373.354 7.32 7.32 0 0 1-6.563 4.146h-.125a7.63 7.63 0 0 1-7.458-7.125 7.5 7.5 0 0 1 2.104-5.77 7.7 7.7 0 0 1 5.48-2.334h.185a6.48 6.48 0 0 1 4.02 1.48 8.1 8.1 0 0 1 2.459 3.916.96.96 0 0 0 .27.417.93.93 0 0 0 .48.145h1.146l14.02-.02 2.48 2.604-2.417 2.312a.4.4 0 0 1-.25.084h-.104c0-.021-.042-.042-.125-.146l-1.021-1.063a.81.81 0 0 0-1.125-.02l-.562.541-1.271-1.333a.76.76 0 0 0-.542-.23h-.02a.84.84 0 0 0-.543.209l-1.333 1.27-.896-.937a.77.77 0 0 0-.562-.25H23.5a.84.84 0 0 0-.542.209L22 42.33l-.896-.958a.76.76 0 0 0-.541-.23h-.021a.78.78 0 0 0-.563.21l-1.666 1.603-.521-.02zm31.904 5.5h-4.842v-6.286a.803.803 0 1 0-1.602 0v6.277H17.794V44.52l.812.02h.021a.84.84 0 0 0 .542-.208l1.333-1.27.917.937c.3.308.791.317 1.104.02l.958-.895.896.937a.79.79 0 0 0 1.119.027l.006-.006 1.333-1.25 1.25 1.313c.302.314.8.331 1.125.041l.563-.541.458.479c.327.4.817.63 1.334.625h.062a2.02 2.02 0 0 0 1.292-.48l3.041-2.916a.7.7 0 0 0 .25-.542.85.85 0 0 0-.229-.583l-3.25-3.417a.82.82 0 0 0-.583-.229l-14.29.021q.095-.442.284-.852c.05-.11.104-.208.162-.323q.164-.297.373-.562c.063-.078.123-.159.192-.232q.27-.287.59-.518c.053-.04.101-.088.16-.123.287-.19.6-.342.927-.452l5.9-1.975 2.123-.709a4.93 4.93 0 0 0 9.083 0l8.015 2.684a4.03 4.03 0 0 1 2.758 3.825zM29.21 16.352h1.563a2.33 2.33 0 0 0-2.325-2.333h-.008a2.38 2.38 0 0 0-2.334 2.333h1.542a.66.66 0 0 1 .187-.48v-.02a.78.78 0 0 1 .605-.27.77.77 0 0 1 .77.766zM37.85 13.946a2.34 2.34 0 0 0-2.406 2.406h1.558a.777.777 0 0 1 .775-.78h.002a.777.777 0 0 1 .78.776v.004h1.558a2.34 2.34 0 0 0-2.267-2.406"/><path d="M2.854 19.477c.042.02.083.02.104.042.094.083.21.141.334.166.06.017.125.025.187.021.123-.012.244-.048.354-.104.042-.02.084-.02.125-.042v8.792a.815.815 0 0 0 .834.792h18.333c.44.008.802-.34.813-.78v-6.242a10 10 0 0 0 4.329 4.62q.456.278.941.506c.22.092.448.144.671.219 1.79.608 3.715.706 5.558.28.307-.072.594-.207.894-.314a10 10 0 0 0 1.613-.695q.718-.366 1.368-.844a10.13 10.13 0 0 0 3.792-6.48 3.884 3.884 0 0 0 3.188-4.458 3.94 3.94 0 0 0-.73-1.687v-.813C45.56 5.575 39.983 0 33.1.002a12.46 12.46 0 0 0-12.225 10.08L14.44 4.914a.733.733 0 0 0-.98 0L8.502 8.873v-1.73a.8.8 0 0 0-.787-.812H3.877a.814.814 0 0 0-.812.813v6.125l-2.73 2.187a.83.83 0 0 0-.293.563.8.8 0 0 0 .208.583zm13.044 8.063h-3.896v-6.938h3.896zm25.77-9.625a8.572 8.572 0 0 1-16.958 1.77 10 10 0 0 1-.166-1.77v-4.688h1.562a.6.6 0 0 0 .271-.042l5.167-1.937v2.77a.8.8 0 0 0 .791.772.9.9 0 0 0 .417-.105l5.583-3.5 1.125 1.709a.81.81 0 0 0 .667.333h1.542zm2.992-1.573a2.35 2.35 0 0 1-.556.885 2.4 2.4 0 0 1-.875.542v-4.396a2.33 2.33 0 0 1 1.431 2.969m-22.345-5.115A10.85 10.85 0 0 1 33.544 1.56 10.877 10.877 0 0 1 43.98 11.998a3.9 3.9 0 0 0-1.52-.313h-1.917l-1.334-2a.81.81 0 0 0-1.062-.229l-5.042 3.167v-2.5a.8.8 0 0 0-.333-.646.78.78 0 0 0-.708-.083l-6.105 2.291h-2.187a3.3 3.3 0 0 0-.792.084 2.9 2.9 0 0 0-.75.229 3 3 0 0 1 .084-.77m-.209 2.708c.16-.156.344-.29.542-.395.104-.07.217-.123.333-.167v4.396a2.6 2.6 0 0 1-.875-.542 2.36 2.36 0 0 1-.687-1.75 2.23 2.23 0 0 1 .687-1.542m.25 5.271v8.334h-4.854V19.83a.844.844 0 0 0-.812-.833h-5.48a.86.86 0 0 0-.812.833v7.709H5.544v-9.292l8.396-6.73 6.02 4.813a3.87 3.87 0 0 0 2.396 2.875M4.67 7.936h2.229v2.239l-2.23 1.796zM3.398 15.04l1.792-1.438h-.01l1.724-1.392 1.598-1.266 5.438-4.375 6.727 5.387a4 4 0 0 0-.021.5v.813c-.26.333-.452.716-.563 1.125L14.44 9.873a.8.8 0 0 0-.98 0L8.504 13.85l-1.683 1.356h-.006l-3.271 2.625-1.542-1.687z"/><path d="M33.108 21.802c-1.502 0-2.337-.583-2.337-.777h-1.563c0 1.331 1.667 2.335 3.894 2.335s3.9-1.004 3.9-2.335h-1.558c0 .194-.834.777-2.336.777M7.315 36.581a3.5 3.5 0 0 0-1.146-.229h-.086a3.41 3.41 0 0 0-3.416 3.333c-.03.91.316 1.792.958 2.438A3.36 3.36 0 0 0 6 43.185h.083q.327 0 .646-.062a3.36 3.36 0 0 0 1.709-.875 3.42 3.42 0 0 0 .125-4.833 3.6 3.6 0 0 0-1.248-.834m.041 4.48q-.01.01-.023.02a2 2 0 0 1-.604.396c-.02 0-.083.02-.125.02a.2.2 0 0 0-.104.022l-.083.02q-.176.044-.354.063h-.021a1.84 1.84 0 0 1-1.271-.562 1.8 1.8 0 0 1-.521-1.313c.015-.487.215-.95.563-1.292.347-.316.8-.495 1.27-.5h.042c.488.01.952.213 1.292.563a1.81 1.81 0 0 1-.06 2.562"/></g><defs><clipPath id="a"><path fill="#fff" d="M0 0h50v50H0z"/></clipPath></defs></svg>
